X: 1
T: Mushroom Treatment, The
M: 4/4
L: 1/8
R: reel
K: Ador
|: eA~A2 EAce | dBGB A~E3 | eA~A2 EAce | ageB dega |
eA~A2 EAce | dBGB A~E3 | DEGA B2ge | dBGA BAA2 :|
|: eaag aged | BddA BA~A2 | eaab aged | BAGE DEG2 |
eaag aged | BddA BA~A2 | efge a2ge | dBGA BAA2 :|
